public/assets/images/icons/black/crown/edit-small.svg

<svg width="16" height="16" xmlns="http://www.w3.org/2000/svg" viewBox="0 0 16 16" shape-rendering="geometricPrecision"><defs><mask id="a"><rect fill="#fff" width="100%" height="100%"/><path d="M14.5 1.716L13-.371l-1.501 2.087-1.982-2.76-.836.011 1.888 6.811h4.86l1.884-6.792-.841-.013z"/></mask></defs><path fill="#FCC70A" d="M14.858 5.028H11.14L9.999.914l.749 1.043.751 1.045.75-1.045L13 .914l.75 1.043.749 1.045.751-1.045L16 .914z"/><path d="M6.231 12.232l1.343-.505-.988-.877-.355 1.382zm4.143-6.606V3.124h-9.35v11.805h9.35V9.53l3.113-3.497-1.938-1.728-1.175 1.321zm-.962 1.083l-2.51 2.819 1.937 1.73.573-.645v3.351H1.983V4.086h7.428v2.623zm5.13-3.814a1.297 1.297 0 0 0-1.828.1l-.69.774L13.961 5.5l.694-.778-.002-.001a1.3 1.3 0 0 0-.111-1.826zm-7.888 4.79H3.233v.961h3.421v-.961zM5.265 5.642H3.233v.962h2.032v-.962z" mask="url(#a)"/></svg>

<?xml version="1.0"?><!DOCTYPE svg PUBLIC "-//W3C//DTD SVG 1.1//EN" "http://www.w3.org/Graphics/SVG/1.1/DTD/svg11.dtd"><svg width="16px" height="16px" xmlns="http://www.w3.org/2000/svg" viewBox="0 0 16 16" shape-rendering="geometricPrecision" fill="#000"><defs><mask id="crown-path"><rect fill="#fff" width="100%" height="100%"/><polygon points="14.5,1.716 13,-0.371 11.499,1.716 9.517,-1.044 8.681,-1.033 10.569,5.778 15.429,5.778 17.313,-1.014 16.472,-1.027 " fill="#000"/></mask></defs><g id="crown" display="inline" fill="#cb1800"><polygon fill="#FCC70A" points="14.858,5.028 11.14,5.028 9.999,0.914 10.748,1.957 11.499,3.002 12.249,1.957 13,0.914 13.75,1.957 14.499,3.002 15.25,1.957 16,0.914 "/></g><g mask="url(#crown-path)"><path d="M6.231,12.232l1.343-0.505L6.586,10.85L6.231,12.232z M10.374,5.626V3.124h-9.35v11.805h9.35V9.53 l3.113-3.497l-1.938-1.728L10.374,5.626z M9.412,6.709l-2.51,2.819l1.937,1.73l0.573-0.645v3.351H1.983V4.086h7.428V6.709z M14.542,2.895c-0.533-0.477-1.348-0.43-1.828,0.1l-0.69,0.774L13.961,5.5l0.694-0.778l-0.002-0.001 C15.123,4.186,15.074,3.369,14.542,2.895z M6.654,7.685H3.233v0.961h3.421V7.685z M5.265,5.642H3.233v0.962h2.032V5.642z"/></g></svg>
